X: 341
T: Crop the Croppers
%R: reel
Z: 2014 John Chambers <jc:trillian.mit.edu>
B: Preston "Twenty four Country Dances for the Year 1798" p.151 #1
F: http://www.vwml.org/browse/browse-collections-dance-tune-books/browse-prestons1798# 2014-8-10
M: C|
L: 1/8
K: F
|:\
fcAc fcAc | fgef g2g2 |\
fgab bagf | efge f2f2 :|
|:\
c2cA c2cA | dcBA B2G2 |\
B2BG B2Bd | cBAG F2F2 :|
% - - - - - - - - - - - - - - - - - - - - - - - - -
%%begintext align
%% 1st Lady turn the next Gent: to her part.r .|
%% 1st Gent: turn the 2d Lady :| lead down the
%% middle up again and cast off :|:
%%endtext
% - - - - - - - - - - - - - - - - - - - - - - - - -

%%sep 1 1 500
%%sep 1 1 500
